X:61
T:Newgate Broth. Ru1.061
%%VWML:RutherfordVol1-2248-p31-0p31
Z:Transcription by Village Music Project, Steve Mansfield July 2015
F:http://www.village-music-project.org.uk/
F:http://www.vwml.org/record/RutherfordVol1/2248/p31
M:6/8
Q:3/8=110
K:A
A2a agf|e2d c2B|A2a agf|g/a/bg e2c/B/|
A2a agf|e2d c2B|A2c B2d|(c/d/e)c A3 :|
|: ec2 fd2|edc B2A|ec2 fdf|egb B3|
ec2 fd2|edc TB2A|Ac2Bd2|(c/d/e)c A3 :|
W:
W: The first Cu. cast off two Cous. .|  Lead up the Middle
W: Foot it & cast off :|  The first Man Foot it to the 2d.
W: Wo. & Hands round three .|.  The same to the Man :|
W: Foot it Corners & turn .||  Foot it the other Corner &
W: turn :||  Hey contrary sides ||  Foot it to your Partner &
W: turn ???? :|
|:
T:Chaplet. Ru1.062, The
L:1/8
B:RUTHERFORD Complete Collection of 200 Country Dances Vol.1; London: David & John Rutherford 1756.
Z:vmp.Mike Hicken 2015 www.village-music-project.org.uk
M:C|
Q:1/2=80
K:D
a2 f/g/a g2 e/f/g|fdAf ec A2|dAfd gebg|faAc d2D2 :|
|: AF/G/ Af edef|AF/G/ Af e4|AF/G/ Af edef|gfed e2A2|
a2 (f/g/)a g2 e/f/g|fdAf ecA2|dAfd gebg|faAc d2D2 :|
W:
W: The first Man sets to the 2d.Wo. & turn her .|  The first
W: Wo. does the same to the 2d. Man :|  Cast off & Lead thro'
W: the 3d. Cu. cast up Lead thro' the 2d. Cu. & cast off .|.
W: Back to Back with your Partner Right Hand & Left at Top
